packages/kaspersky-hexa-ui-icons/src/iconsSVGs/24/Shredder.svg

<svg xmlns="http://www.w3.org/2000/svg" width="24" height="24" fill="none" viewBox="0 0 24 24"><path fill="#000" fill-rule="evenodd" d="M8 2c-1.1046 0-2 .8954-2 2v3H4c-1.1046 0-2 .8954-2 2v7c0 1.1046.8954 2 2 2h1v3c0 .5523.4477 1 1 1s1-.4477 1-1v-6h2v6c0 .5523.4477 1 1 1s1-.4477 1-1v-6h2v6c0 .5523.4477 1 1 1s1-.4477 1-1v-6h2v6c0 .5523.4477 1 1 1s1-.4477 1-1v-3h1c1.1046 0 2-.8954 2-2V9c0-1.1046-.8954-2-2-2h-2V4c0-1.1046-.8954-2-2-2zm9 11c1.1046 0 2 .8954 2 2v1h1V9H4v7h1v-1c0-1.1046.8954-2 2-2zm-1-6V4H8v3z"/></svg>

<svg width="24" height="24" viewBox="0 0 24 24" fill="none" xmlns="http://www.w3.org/2000/svg">
<path fill-rule="evenodd" clip-rule="evenodd" d="M8 2C6.89543 2 6 2.89543 6 4V7H4C2.89543 7 2 7.89543 2 9V16C2 17.1046 2.89543 18 4 18H5V21C5 21.5523 5.44772 22 6 22C6.55228 22 7 21.5523 7 21V15H9V21C9 21.5523 9.44772 22 10 22C10.5523 22 11 21.5523 11 21V15H13V21C13 21.5523 13.4477 22 14 22C14.5523 22 15 21.5523 15 21V15H17V21C17 21.5523 17.4477 22 18 22C18.5523 22 19 21.5523 19 21V18H20C21.1046 18 22 17.1046 22 16V9C22 7.89543 21.1046 7 20 7H18V4C18 2.89543 17.1046 2 16 2H8ZM17 13C18.1046 13 19 13.8954 19 15V16H20V9H4V16H5V15C5 13.8954 5.89543 13 7 13H17ZM16 7V4H8V7H16Z" fill="black"/>
</svg>
